www/images/add@2x.svg

<svg fill="none" height="55" viewBox="0 0 54 55" width="54" xmlns="http://www.w3.org/2000/svg"><g fill="#000"><path d="m18.7218 28.6c.1577 0 .3118-.0468.4437-.1347s.2357-.2131.2988-.3603c.063-.1471.0826-.3098.0562-.468-.0264-.1583-.0975-.3053-.2047-.423-1.3099-1.4508-2.199-3.2433-2.5683-5.1781s-.2044-3.936.4764-5.7811c.6808-1.845 1.8507-3.4615 3.3798-4.6696 1.529-1.2082 3.3571-1.9606 5.2809-2.17362 1.9239-.21301 3.868.12175 5.6162.96702 1.7482.8453 3.2319 2.168 4.286 3.8209 1.0542 1.6529 1.6374 3.5713 1.6849 5.5417.0475 1.9705-.4426 3.9157-1.4159 5.6193-.1088.1889-.1395.4141-.0853.6261.0541.2119.1888.3933.3742.5042.1855.1108.4066.1421.6147.0869s.3862-.1923.495-.3812c1.1305-1.9678 1.7021-4.2168 1.6512-6.4962-.0509-2.2793-.7224-4.4995-1.9395-6.4129-1.2172-1.9135-2.9322-3.44503-4.9539-4.4239s-4.2706-1.3666-6.4959-1.11997c-2.2254.24663-4.3398 1.11792-6.1074 2.51677-1.7677 1.3988-3.1192 3.2702-3.9038 5.4055s-.9716 4.4506-.54 6.6878c.4316 2.2371 1.4648 4.3082 2.9843 5.9824.0734.0806.1618.1455.2601.1908.0983.0454.2045.0702.3123.0732z"/><path d="m33.0264 23.254c.0993.039.2051.0578.3115.0551.1064-.0026.2112-.0266.3085-.0705s.1852-.107.2585-.1855c.0734-.0785.1308-.171.1691-.2721.4447-1.1957.59-2.4853.4229-3.7525-.1671-1.2673-.6414-2.4721-1.38-3.5059-.7387-1.0339-1.7185-1.864-2.851-2.4157-1.1325-.5516-2.382-.8073-3.6358-.7441-1.2538.0633-2.4724.4436-3.5458 1.1066-1.0734.6629-1.9679 1.5877-2.6026 2.6908-.6347 1.1032-.9897 2.3499-1.033 3.6277-.0433 1.2779.2265 2.5465.7851 3.6916.0482.0968.1147.1829.1956.2536.0809.0706.1747.1243.276.158s.2081.0468.3143.0384c.1063-.0083.2099-.0379.3049-.087s.1796-.1168.249-.1992c.0693-.0824.122-.178.1551-.2811.0331-.1032.0459-.212.0377-.3202-.0081-.1082-.0372-.2137-.0854-.3105-.4243-.8519-.6427-1.7947-.6372-2.75.02-.8769.2269-1.7388.6065-2.5261.3795-.7873.9226-1.4812 1.5916-2.0335.6689-.5522 1.4478-.9498 2.2826-1.165.8349-.2153 1.7056-.243 2.552-.0815.8464.1616 1.6482.5087 2.3499 1.0173.7016.5086 1.2862 1.1664 1.7134 1.928.4272.7615.6867 1.6086.7605 2.4825.0739.8738-.0397 1.7536-.3329 2.5783-.0393.1011-.0586.2091-.0568.3178s.0247.216.0674.3157c.0426.0996.1042.1897.1812.2651.0769.0753.1677.1344.2672.1739z"/><path d="m24.8832 47.3h10.7082c.2148 0 .4209-.0869.5728-.2416s.2372-.3646.2372-.5834v-3.7565l2.0574-2.948c.0981-.1396.1509-.3069.1512-.4785v-9.306c-.0014-.7041-.2767-1.3789-.7655-1.8768s-1.1514-.7782-1.8427-.7797h-.0918c-.3487-.0006-.694.0705-1.0152.209-.0312-.4158-.1586-.8181-.3719-1.174-.2132-.3559-.5063-.6554-.855-.8737-.3488-.2184-.7433-.3496-1.1514-.3827-.4081-.0332-.8181.0326-1.1965.1919v-6.1325c.0021-.6377-.2216-1.2548-.63-1.7381s-.9742-.8005-1.5936-.8934-1.251.0447-1.7788.3876c-.5279.3429-.9167.8682-1.0952 1.4794-.3965-.1965-.8357-.2867-1.2761-.2621-.4403.0246-.8672.1632-1.2403.4028-.373.2395-.6799.572-.8916.9661-.2116.394-.3211.8366-.318 1.2857v9.79l-.108-.176-.054-.077c-.2193-.2729-.4908-.4977-.7979-.6607s-.6435-.2608-.9888-.2876c-.3453-.0267-.6923.0182-1.0201.132-.3278.1139-.6294.2943-.8868.5303-.4742.4364-.7717 1.0371-.8346 1.6848-.0629.6478.1134 1.2962.4944 1.8187l5.7726 9.1465v3.7895c.0029.2169.0895.4239.2411.5763.1515.1523.356.2377.5689.2377zm-5.1678-16.027c.0925-.0865.201-.1532.3192-.1962.1183-.0431.2437-.0616.3691-.0544.1253.0072.248.0399.3607.0961.1127.0563.2133.135.2956.2315l1.5714 2.497c.0948.1494.2345.2637.3982.3257s.3427.0684.5103.0183.3148-.154.4197-.2963.1618-.3153.1622-.4932v-12.606c0-.2677.1044-.5244.2903-.7136.1858-.1893.4378-.2956.7006-.2956s.5149.1063.7007.2956c.1858.1892.2902.4459.2902.7136v10.0045c0 .2188.0854.4287.2373.5834s.3579.2416.5727.2416.4209-.0869.5728-.2416.2372-.3646.2372-.5834v-11.6325c0-.2677.1044-.5244.2903-.7136.1858-.1893.4378-.2956.7006-.2956s.5149.1063.7007.2956c.1858.1892.2902.4459.2902.7136v11.6325c0 .2188.0854.4287.2373.5834s.3579.2416.5727.2416.4209-.0869.5728-.2416.2372-.3646.2372-.5834v-3.025c0-.2677.1044-.5244.2903-.7136.1858-.1893.4378-.2956.7006-.2956s.5149.1063.7007.2956c.1858.1892.2902.4459.2902.7136v4.2845c0 .2188.0854.4287.2373.5834s.3579.2416.5727.2416.4209-.0869.5728-.2416.2372-.3646.2372-.5834v-.935s0 0 0-.0385v-1.1c0-.2669.1041-.5229.2895-.7117.1853-.1888.4366-.2948.6987-.2948h.0918c.2621 0 .5135.106.6988.2948s.2894.4448.2894.7117v9.064l-2.0574 2.948c-.098.1396-.1509.3069-.1512.4785v3.1735h-9.0936v-3.1955c-.0004-.1581-.0454-.3127-.1296-.4455l-5.94-9.35-.0432-.0605c-.1497-.196-.2193-.4434-.1941-.6904.0251-.247.1431-.4746.3291-.6351z"/></g><path d="m19.7154 31.273c.0925-.0865.201-.1532.3192-.1962.1183-.0431.2437-.0616.3691-.0544.1253.0072.248.0399.3607.0961.1127.0563.2133.135.2956.2315l1.5714 2.497c.0948.1494.2345.2637.3982.3257s.3427.0684.5103.0183.3148-.154.4197-.2963.1618-.3153.1622-.4932v-12.606c0-.2677.1044-.5244.2903-.7136.1858-.1893.4378-.2956.7006-.2956s.5149.1063.7007.2956c.1858.1892.2902.4459.2902.7136v10.0045c0 .2188.0854.4287.2373.5834s.3579.2416.5727.2416.4209-.0869.5728-.2416.2372-.3646.2372-.5834v-11.6325c0-.2677.1044-.5244.2903-.7136.1858-.1893.4378-.2956.7006-.2956s.5149.1063.7007.2956c.1858.1892.2902.4459.2902.7136v11.6325c0 .2188.0854.4287.2373.5834s.3579.2416.5727.2416.4209-.0869.5728-.2416.2372-.3646.2372-.5834v-3.025c0-.2677.1044-.5244.2903-.7136.1858-.1893.4378-.2956.7006-.2956s.5149.1063.7007.2956c.1858.1892.2902.4459.2902.7136v4.2845c0 .2188.0854.4287.2373.5834s.3579.2416.5727.2416.4209-.0869.5728-.2416.2372-.3646.2372-.5834v-.935s0 0 0-.0385v-1.1c0-.2669.1041-.5229.2895-.7117.1853-.1888.4366-.2948.6987-.2948h.0918c.2621 0 .5135.106.6988.2948s.2894.4448.2894.7117v9.064l-2.0574 2.948c-.098.1396-.1509.3069-.1512.4785v3.1735h-9.0936v-3.1955c-.0004-.1581-.0454-.3127-.1296-.4455l-5.94-9.35-.0432-.0605c-.1497-.196-.2193-.4434-.1941-.6904.0251-.247.1431-.4746.3291-.6351z" fill="#fff"/></svg>

<svg width="54" height="55" viewBox="0 0 54 55" fill="none" xmlns="http://www.w3.org/2000/svg">
<path d="M18.7218 28.6C18.8795 28.6 19.0336 28.5532 19.1655 28.4653C19.2974 28.3774 19.4012 28.2522 19.4643 28.105C19.5273 27.9579 19.5469 27.7952 19.5205 27.637C19.4941 27.4787 19.423 27.3317 19.3158 27.214C18.0059 25.7632 17.1168 23.9707 16.7475 22.0359C16.3782 20.1011 16.5431 18.0999 17.2239 16.2548C17.9047 14.4098 19.0746 12.7933 20.6037 11.5852C22.1327 10.377 23.9608 9.6246 25.8846 9.41158C27.8085 9.19857 29.7526 9.53333 31.5008 10.3786C33.249 11.2239 34.7327 12.5466 35.7868 14.1995C36.841 15.8524 37.4242 17.7708 37.4717 19.7412C37.5192 21.7117 37.0291 23.6569 36.0558 25.3605C35.947 25.5494 35.9163 25.7746 35.9705 25.9866C36.0246 26.1985 36.1593 26.3799 36.3447 26.4908C36.5302 26.6016 36.7513 26.6329 36.9594 26.5777C37.1675 26.5225 37.3456 26.3854 37.4544 26.1965C38.5849 24.2287 39.1565 21.9797 39.1056 19.7003C39.0547 17.421 38.3832 15.2008 37.1661 13.2874C35.9489 11.3739 34.2339 9.84237 32.2122 8.8635C30.1905 7.88463 27.9416 7.4969 25.7163 7.74353C23.4909 7.99016 21.3765 8.86145 19.6089 10.2603C17.8412 11.6591 16.4897 13.5305 15.7051 15.6658C14.9205 17.8011 14.7335 20.1164 15.1651 22.3536C15.5967 24.5907 16.6299 26.6618 18.1494 28.336C18.2228 28.4166 18.3112 28.4815 18.4095 28.5268C18.5078 28.5722 18.614 28.597 18.7218 28.6Z" fill="black"/>
<path d="M33.0264 23.254C33.1257 23.293 33.2315 23.3118 33.3379 23.3091C33.4443 23.3065 33.5491 23.2825 33.6464 23.2386C33.7437 23.1947 33.8316 23.1316 33.9049 23.0531C33.9783 22.9746 34.0357 22.8821 34.074 22.781C34.5187 21.5853 34.664 20.2957 34.4969 19.0285C34.3298 17.7612 33.8555 16.5564 33.1169 15.5226C32.3782 14.4887 31.3984 13.6586 30.2659 13.1069C29.1334 12.5553 27.8839 12.2996 26.6301 12.3628C25.3763 12.4261 24.1577 12.8064 23.0843 13.4694C22.0109 14.1323 21.1164 15.0571 20.4817 16.1602C19.847 17.2634 19.492 18.5101 19.4487 19.7879C19.4054 21.0658 19.6752 22.3344 20.2338 23.4795C20.282 23.5763 20.3485 23.6624 20.4294 23.7331C20.5103 23.8037 20.6041 23.8574 20.7054 23.8911C20.8067 23.9248 20.9135 23.9379 21.0197 23.9295C21.126 23.9212 21.2296 23.8916 21.3246 23.8425C21.4196 23.7934 21.5042 23.7257 21.5736 23.6433C21.6429 23.5609 21.6956 23.4653 21.7287 23.3622C21.7618 23.259 21.7746 23.1502 21.7664 23.042C21.7583 22.9338 21.7292 22.8283 21.681 22.7315C21.2567 21.8796 21.0383 20.9368 21.0438 19.9815C21.0638 19.1046 21.2707 18.2427 21.6503 17.4554C22.0298 16.6681 22.5729 15.9742 23.2419 15.4219C23.9108 14.8697 24.6897 14.4721 25.5245 14.2569C26.3594 14.0416 27.2301 14.0139 28.0765 14.1754C28.9229 14.337 29.7247 14.6841 30.4264 15.1927C31.128 15.7013 31.7126 16.3591 32.1398 17.1207C32.567 17.8822 32.8265 18.7293 32.9003 19.6032C32.9742 20.477 32.8606 21.3568 32.5674 22.1815C32.5281 22.2826 32.5088 22.3906 32.5106 22.4993C32.5124 22.608 32.5353 22.7153 32.578 22.815C32.6206 22.9146 32.6822 23.0047 32.7592 23.0801C32.8361 23.1554 32.9269 23.2145 33.0264 23.254Z" fill="black"/>
<path d="M24.8832 47.3H35.5914C35.8062 47.3 36.0123 47.2131 36.1642 47.0584C36.3161 46.9037 36.4014 46.6938 36.4014 46.475V42.7185L38.4588 39.7705C38.5569 39.6309 38.6097 39.4636 38.61 39.292V29.986C38.6086 29.2819 38.3333 28.6071 37.8445 28.1092C37.3557 27.6113 36.6931 27.331 36.0018 27.3295H35.91C35.5613 27.3289 35.216 27.4 34.8948 27.5385C34.8636 27.1227 34.7362 26.7204 34.5229 26.3645C34.3097 26.0086 34.0166 25.7091 33.6679 25.4908C33.3191 25.2724 32.9246 25.1412 32.5165 25.1081C32.1084 25.0749 31.6984 25.1407 31.32 25.3V19.1675C31.3221 18.5298 31.0984 17.9127 30.69 17.4294C30.2816 16.9461 29.7158 16.6289 29.0964 16.536C28.477 16.4431 27.8454 16.5807 27.3176 16.9236C26.7897 17.2665 26.4009 17.7918 26.2224 18.403C25.8259 18.2065 25.3867 18.1163 24.9463 18.1409C24.506 18.1655 24.0791 18.3041 23.706 18.5437C23.333 18.7832 23.0261 19.1157 22.8144 19.5098C22.6028 19.9038 22.4933 20.3464 22.4964 20.7955V30.5855L22.3884 30.4095L22.3344 30.3325C22.1151 30.0596 21.8436 29.8348 21.5365 29.6718C21.2294 29.5088 20.893 29.411 20.5477 29.3842C20.2024 29.3575 19.8554 29.4024 19.5276 29.5162C19.1998 29.6301 18.8982 29.8105 18.6408 30.0465C18.1666 30.4829 17.8691 31.0836 17.8062 31.7313C17.7433 32.3791 17.9196 33.0275 18.3006 33.55L24.0732 42.6965V46.486C24.0761 46.7029 24.1627 46.9099 24.3143 47.0623C24.4658 47.2146 24.6703 47.3 24.8832 47.3ZM19.7154 31.273C19.8079 31.1865 19.9164 31.1198 20.0346 31.0768C20.1529 31.0337 20.2783 31.0152 20.4037 31.0224C20.529 31.0296 20.6517 31.0623 20.7644 31.1185C20.8771 31.1748 20.9777 31.2535 21.06 31.35L22.6314 33.847C22.7262 33.9964 22.8659 34.1107 23.0296 34.1727C23.1933 34.2347 23.3723 34.2411 23.5399 34.191C23.7075 34.1409 23.8547 34.037 23.9596 33.8947C24.0645 33.7524 24.1214 33.5794 24.1218 33.4015V20.7955C24.1218 20.5278 24.2262 20.2711 24.4121 20.0819C24.5979 19.8926 24.8499 19.7863 25.1127 19.7863C25.3755 19.7863 25.6276 19.8926 25.8134 20.0819C25.9992 20.2711 26.1036 20.5278 26.1036 20.7955V30.8C26.1036 31.0188 26.189 31.2287 26.3409 31.3834C26.4928 31.5381 26.6988 31.625 26.9136 31.625C27.1284 31.625 27.3345 31.5381 27.4864 31.3834C27.6383 31.2287 27.7236 31.0188 27.7236 30.8V19.1675C27.7236 18.8998 27.828 18.6431 28.0139 18.4539C28.1997 18.2646 28.4517 18.1583 28.7145 18.1583C28.9773 18.1583 29.2294 18.2646 29.4152 18.4539C29.601 18.6431 29.7054 18.8998 29.7054 19.1675V30.8C29.7054 31.0188 29.7908 31.2287 29.9427 31.3834C30.0946 31.5381 30.3006 31.625 30.5154 31.625C30.7302 31.625 30.9363 31.5381 31.0882 31.3834C31.2401 31.2287 31.3254 31.0188 31.3254 30.8V27.775C31.3254 27.5073 31.4298 27.2506 31.6157 27.0614C31.8015 26.8721 32.0535 26.7658 32.3163 26.7658C32.5791 26.7658 32.8312 26.8721 33.017 27.0614C33.2028 27.2506 33.3072 27.5073 33.3072 27.775V32.0595C33.3072 32.2783 33.3926 32.4882 33.5445 32.6429C33.6964 32.7976 33.9024 32.8845 34.1172 32.8845C34.332 32.8845 34.5381 32.7976 34.69 32.6429C34.8419 32.4882 34.9272 32.2783 34.9272 32.0595V31.1245C34.9272 31.1245 34.9272 31.1245 34.9272 31.086V29.986C34.9272 29.7191 35.0313 29.4631 35.2167 29.2743C35.402 29.0855 35.6533 28.9795 35.9154 28.9795H36.0072C36.2693 28.9795 36.5207 29.0855 36.706 29.2743C36.8913 29.4631 36.9954 29.7191 36.9954 29.986V39.05L34.938 41.998C34.84 42.1376 34.7871 42.3049 34.7868 42.4765V45.65H25.6932V42.4545C25.6928 42.2964 25.6478 42.1418 25.5636 42.009L19.6236 32.659L19.5804 32.5985C19.4307 32.4025 19.3611 32.1551 19.3863 31.9081C19.4114 31.6611 19.5294 31.4335 19.7154 31.273Z" fill="black"/>
<path d="M19.7154 31.273C19.8079 31.1865 19.9164 31.1198 20.0346 31.0768C20.1529 31.0337 20.2783 31.0152 20.4037 31.0224C20.529 31.0296 20.6517 31.0623 20.7644 31.1185C20.8771 31.1748 20.9777 31.2535 21.06 31.35L22.6314 33.847C22.7262 33.9964 22.8659 34.1107 23.0296 34.1727C23.1933 34.2347 23.3723 34.2411 23.5399 34.191C23.7075 34.1409 23.8547 34.037 23.9596 33.8947C24.0645 33.7524 24.1214 33.5794 24.1218 33.4015V20.7955C24.1218 20.5278 24.2262 20.2711 24.4121 20.0819C24.5979 19.8926 24.8499 19.7863 25.1127 19.7863C25.3755 19.7863 25.6276 19.8926 25.8134 20.0819C25.9992 20.2711 26.1036 20.5278 26.1036 20.7955V30.8C26.1036 31.0188 26.189 31.2287 26.3409 31.3834C26.4928 31.5381 26.6988 31.625 26.9136 31.625C27.1284 31.625 27.3345 31.5381 27.4864 31.3834C27.6383 31.2287 27.7236 31.0188 27.7236 30.8V19.1675C27.7236 18.8998 27.828 18.6431 28.0139 18.4539C28.1997 18.2646 28.4517 18.1583 28.7145 18.1583C28.9773 18.1583 29.2294 18.2646 29.4152 18.4539C29.601 18.6431 29.7054 18.8998 29.7054 19.1675V30.8C29.7054 31.0188 29.7908 31.2287 29.9427 31.3834C30.0946 31.5381 30.3006 31.625 30.5154 31.625C30.7302 31.625 30.9363 31.5381 31.0882 31.3834C31.2401 31.2287 31.3254 31.0188 31.3254 30.8V27.775C31.3254 27.5073 31.4298 27.2506 31.6157 27.0614C31.8015 26.8721 32.0535 26.7658 32.3163 26.7658C32.5791 26.7658 32.8312 26.8721 33.017 27.0614C33.2028 27.2506 33.3072 27.5073 33.3072 27.775V32.0595C33.3072 32.2783 33.3926 32.4882 33.5445 32.6429C33.6964 32.7976 33.9024 32.8845 34.1172 32.8845C34.332 32.8845 34.5381 32.7976 34.69 32.6429C34.8419 32.4882 34.9272 32.2783 34.9272 32.0595V31.1245C34.9272 31.1245 34.9272 31.1245 34.9272 31.086V29.986C34.9272 29.7191 35.0313 29.4631 35.2167 29.2743C35.402 29.0855 35.6533 28.9795 35.9154 28.9795H36.0072C36.2693 28.9795 36.5207 29.0855 36.706 29.2743C36.8913 29.4631 36.9954 29.7191 36.9954 29.986V39.05L34.938 41.998C34.84 42.1376 34.7871 42.3049 34.7868 42.4765V45.65H25.6932V42.4545C25.6928 42.2964 25.6478 42.1418 25.5636 42.009L19.6236 32.659L19.5804 32.5985C19.4307 32.4025 19.3611 32.1551 19.3863 31.9081C19.4114 31.6611 19.5294 31.4335 19.7154 31.273Z" fill="white"/>
</svg>
